packages/ckeditor5-core/theme/icons/remove.svg

<svg width="20" height="20" viewBox="0 0 20 20" fill="none" xmlns="http://www.w3.org/2000/svg">
<path d="M5.19998 6.99999H14.4C15 6.99999 15.4 7.39999 15.4 7.99999V17.9C15.4 18.4 15 18.9 14.4 18.9H5.19998C4.93476 18.9 4.68041 18.7946 4.49287 18.6071C4.30533 18.4196 4.19998 18.1652 4.19998 17.9V7.99999C4.19998 7.39999 4.59998 6.99999 5.19998 6.99999ZM6.19998 8.49999C5.89998 8.49999 5.69998 8.69999 5.69998 8.99999V17C5.69998 17.3 5.89998 17.5 6.19998 17.5H6.69998C6.89998 17.5 7.19998 17.3 7.19998 17V8.99999C7.19998 8.69999 6.89998 8.49999 6.69998 8.49999H6.19998ZM9.39998 8.49999C9.19998 8.49999 8.89998 8.69999 8.89998 8.99999V17C8.89998 17.3 9.19998 17.5 9.39998 17.5H9.89998C10.2 17.5 10.4 17.3 10.4 17V8.99999C10.4 8.69999 10.2 8.49999 9.89998 8.49999H9.49998H9.39998ZM12.9 8.49999C12.7 8.49999 12.4 8.69999 12.4 8.99999V17C12.4 17.3 12.7 17.5 12.9 17.5H13.4C13.7 17.5 13.9 17.3 13.9 17V8.99999C13.9 8.69999 13.7 8.49999 13.4 8.49999H12.9ZM11.5 1.39999H8.29998L6.49998 3.59999H3.79998C3.29998 3.59999 3.09998 3.89999 3.09998 4.39999C3.09998 4.89999 3.29998 5.09999 3.79998 5.09999H15.8C16.4 5.09999 16.7 4.89999 16.7 4.39999C16.7 3.89999 16.4 3.59999 15.7 3.59999H13.3L11.5 1.39999Z" fill="#333333"/>
</svg>

<svg viewBox="0 0 20 20" xmlns="http://www.w3.org/2000/svg"><path d="M5.2 7h9.2c.6 0 1 .4 1 1v9.9c0 .5-.4 1-1 1H5.2a1 1 0 0 1-1-1V8c0-.6.4-1 1-1Zm1 1.5c-.3 0-.5.2-.5.5v8c0 .3.2.5.5.5h.5c.2 0 .5-.2.5-.5V9c0-.3-.3-.5-.5-.5h-.5Zm3.2 0c-.2 0-.5.2-.5.5v8c0 .3.3.5.5.5h.5c.3 0 .5-.2.5-.5V9c0-.3-.2-.5-.5-.5h-.5Zm3.5 0c-.2 0-.5.2-.5.5v8c0 .3.3.5.5.5h.5c.3 0 .5-.2.5-.5V9c0-.3-.2-.5-.5-.5h-.5Zm-1.4-7.1H8.3L6.5 3.6H3.8c-.5 0-.7.3-.7.8s.2.7.7.7h12c.6 0 .9-.2.9-.7 0-.5-.3-.8-1-.8h-2.4l-1.8-2.2Z"/></svg>
